config.ocio
ocio_profile_version: 2

environment:
  {}
search_path: LUTs
strictparsing: true
luma: [0.2126, 0.7152, 0.0722]
description: A dangerous picutre formation chain designed for Eduardo Suazo and Chris Brejon.

roles:
  color_picking: sRGB
  color_timing: sRGB
  compositing_log: sRGB
  data: Generic Data
  default: sRGB
  default_byte: sRGB
  default_float: Linear BT.709
  default_sequencer: sRGB
  matte_paint: sRGB
  reference: Linear BT.709
  scene_linear: Linear BT.709
  texture_paint: sRGB

file_rules:
  - !<Rule> {name: Default, colorspace: default}

displays:
  sRGB:
    - !<View> {name: Display Native, colorspace: sRGB}
    - !<View> {name: AgX, colorspace: AgX Base}
  Display P3:
    - !<View> {name: Display Native, colorspace: Display P3}
    - !<View> {name: AgX, colorspace: AgX Base Display P3}
  BT.1886:
    - !<View> {name: Display Native, colorspace: BT.1886}
    - !<View> {name: AgX, colorspace: AgX Base BT.1886}

active_displays: []
active_views: []

colorspaces:
  - !<ColorSpace>
    name: Linear BT.709
    aliases: [Linear, Linear Tristimulus]
    family: Colourspaces
    equalitygroup: ""
    bitdepth: unknown
    description: Open Domain Linear BT.709 Tristimulus
    isdata: false
    allocation: uniform

  - !<ColorSpace>
    name: AgX Log (SB2383)
    aliases: [Log, AgX Log, SB2383, AgX SB2383 Log]
    family: Log Encodings
    equalitygroup: ""
    bitdepth: unknown
    description: AgX Log, (SB2383)
    isdata: false
    allocation: uniform
    from_scene_reference: !<GroupTransform>
      children:
        - !<RangeTransform> {min_in_value: 0, min_out_value: 0}
        - !<MatrixTransform> {matrix: [0.892117703985358, 0.0682709287349655, 0.0396113672796751, 0, 0.0504186619847999, 0.878895737795481, 0.0706856002197205, 0, 0.0333124149657634, 0.0572705341147235, 0.909417050919513, 0, 0, 0, 0, 1]}
        - !<AllocationTransform> {allocation: lg2, vars: [-12.47393, 4.026069]}

  - !<ColorSpace>
    name: 2.2 EOTF Encoding
    aliases: [sRGB EOTF Encoding]
    family: Utilities/Curves
    equalitygroup: ""
    bitdepth: unknown
    description: 2.2 Exponent EOTF Encoding
    isdata: false
    allocation: uniform
    from_scene_reference: !<ExponentTransform> {value: 2.2, direction: inverse}

  - !<ColorSpace>
    name: 2.4 EOTF Encoding
    aliases: [BT.1886 EOTF Encoding]
    family: Utilities/Curves
    equalitygroup: ""
    bitdepth: unknown
    description: 2.4 Exponent EOTF Encoding
    isdata: false
    allocation: uniform
    from_scene_reference: !<ExponentTransform> {value: 2.4, direction: inverse}

  - !<ColorSpace>
    name: sRGB
    family: Displays/SDR
    equalitygroup: ""
    bitdepth: unknown
    description: sRGB IEC 61966-2-1 2.2 Exponent Reference EOTF Display
    isdata: false
    allocation: uniform
    from_scene_reference: !<ColorSpaceTransform> {src: Linear BT.709, dst: 2.2 EOTF Encoding}

  - !<ColorSpace>
    name: Display P3
    family: Displays/SDR
    equalitygroup: ""
    bitdepth: unknown
    description: Display P3 2.2 Exponent EOTF Display
    isdata: false
    allocation: uniform
    from_scene_reference: !<GroupTransform>
      children:
        - !<MatrixTransform> {matrix: [0.822533651175139, 0.17754580666797, 5.36947712599933e-05, 0, 0.0331170846132368, 0.966848142976822, -3.14995811217383e-06, 0, 0.0170564417474994, 0.0724006113523901, 0.910489265923157, 0, 0, 0, 0, 1]}
        - !<ColorSpaceTransform> {src: Linear BT.709, dst: 2.2 EOTF Encoding}

  - !<ColorSpace>
    name: BT.1886
    family: Displays/SDR
    equalitygroup: ""
    bitdepth: unknown
    description: BT.1886 2.4 Exponent EOTF Display
    isdata: false
    allocation: uniform
    from_scene_reference: !<ColorSpaceTransform> {src: Linear BT.709, dst: 2.4 EOTF Encoding}

  - !<ColorSpace>
    name: AgX Base
    family: Image Formation
    equalitygroup: ""
    bitdepth: unknown
    description: AgX Base Image Encoding
    isdata: false
    allocation: uniform
    from_scene_reference: !<GroupTransform>
      children:
        - !<ColorSpaceTransform> {src: Linear BT.709, dst: AgX Log (SB2383)}
        - !<FileTransform> {src: AgX_Default_Contrast.spi1d}
        - !<ExponentTransform> {value: 2.2}
        - !<MatrixTransform> {matrix: [0.892117703985358, 0.0682709287349655, 0.0396113672796751, 0, 0.0504186619847999, 0.878895737795481, 0.0706856002197205, 0, 0.0333124149657634, 0.0572705341147235, 0.909417050919513, 0, 0, 0, 0, 1], direction: inverse}
        - !<ExponentTransform> {value: 2.2, direction: inverse}

  - !<ColorSpace>
    name: AgX Base BT.1886
    family: Views/AgX BT.1886
    equalitygroup: ""
    bitdepth: unknown
    description: AgX Base Image Encoding for BT.1886 Displays
    isdata: false
    allocation: uniform
    from_scene_reference: !<GroupTransform>
      children:
        - !<ColorSpaceTransform> {src: Linear BT.709, dst: AgX Base}
        - !<ColorSpaceTransform> {src: 2.2 EOTF Encoding, dst: 2.4 EOTF Encoding}

  - !<ColorSpace>
    name: AgX Base Display P3
    family: Views/AgX Display P3
    equalitygroup: ""
    bitdepth: unknown
    description: AgX Base Image Encoding for Display P3 Displays
    isdata: false
    allocation: uniform
    from_scene_reference: !<GroupTransform>
      children:
        - !<ColorSpaceTransform> {src: Linear BT.709, dst: AgX Base}
        - !<ColorSpaceTransform> {src: 2.2 EOTF Encoding, dst: Display P3}

  - !<ColorSpace>
    name: Generic Data
    aliases: [Non-Color, Raw]
    family: Data/Generic Data
    equalitygroup: ""
    bitdepth: unknown
    description: Generic data encoding
    isdata: true
    allocation: uniform
